X:1
T:Come Fare Away With Me or Marnie
M:3/4
L:1/4
K:G
 D B,3/2 A,/2| G, B, D| G A3/2 G/2| E D z| D G3/2 A/2| B A3/2 G/2|\
 A A B| A3| D B,3/2 A,/2| G, B, D| G A3/2 G/2| E D z| D G3/2 A/2| B2 A|\
 G3-| G3| B3| B3| A G3/2 G/2| G3| D G3/2 A/2| B2 G| A3-| A2 z| B3|\
 B3| A G G| G3| D G A| B2 A| G3-| G3|
